X:473
T:Lochan a' Chait
R:Reel
C:James Stewart-Robertson
B:The Athole Collection
M:C|
L:1/8
K:E Minor
E|BEEF GAB^c|dBAG FDDF|1 BEEF GAB^c|dBAF BEE:|2 EBEF GEAF|
dBAF BEE||
e|geeB e2 Be|defg afdf|geeB e2 Be|dBAF E/E/E E>B|geeB e2 Be|defg afdf|
geaf bgaf|dBAF BEE||

